X: 353
T:Steamboat Quickstep
N: page 125
N: heptatonic
N: matches 436
R: Jig
L:1/8
M:6/8
K:A major
g | "A"a2 e c2 A | Ace a2 e | agf "F#m"edc | "Bm"Bed "E7"cBA |
"A"a2 e c2 A | Ace "A7"a2 e | "D"agf "Bm"edc | "E7"BcB "A"A2 :|
|: B | "A"Ace ece | "A"efe "A7"cBA | "D"Ade f2 f | "Bm"fga "E7"e3 |
"A"Ace ece | "A"efe "A7"cBA | "D"agf "Bm"edc | "E7"BcB "A"A2 :|
